X: 3480
T: Bhaskar's
R: mazurka
M: 3/4
K: Cmajor
gf|ed c2 fe|ed G2 cB|AB cF Ac|ed G2 gf|
ed c2 fe|ed G2 F2|FG Ac B2|c4:|
|:d ef|ge ce _b2|a2 ag fe|fd G2 a2|g2 fe dc|
ec A2 fe|ed G2 F2|FG Ac B2|c3:|

